X:1
T:Death Hath No Terrors
T:Death Hath No Terrors
T:Charles Price Jones
T:Charles Price Jones, 1901
T:Public Domain Courtesy of the Cyber Hymnal™
T:Public Domain Courtesy of the Cyber Hymnal™
C:Charles Price Jones
Z:Public Domain
Z:Courtesy of the Cyber Hymnal™
%%score 1 ( 2 3 )
L:1/8
Q:1/4=105
M:4/4
K:Bb
V:1 treble 
V:2 bass 
V:3 bass 
V:1
 [DF]2 | [DB]2 [DB]2 [EB][EB][EB][EG] | [DF]2 [CE]2 [B,D]2 [DF]2 | %3
w: 1.~Death|hath no ter- rors for the|blood bought one, O|
w: 2.~Our|souls die dai- ly to the|world and sin, O|
w: 3.~We|seek a ci- ty far be-|yond this vale, O|
w: 4.~We’ll|then press for- ward to the|heav- ’nly land, O|
w: 5.~We’ll|rise some day just as our|Sav- ior rose, O|
 [DB]>[DB] [DB][DB] [Fd][Ec][DB][CA] | [DB]6 ([DF][DF]) | [DB]2 [FB]2 [GB][GB][FA][EG] | %6
w: glo- ry hal- le- lu- jah to the|Lamb! The *|boast- ed vic- t’ry of the|
w: glo- ry hal- le- lu- jah to the|Lamb! By~the *|Spir- it’s pow- er as He|
w: glo- ry hal- le- lu- jah to the|Lamb! Where *|joys ce- les- tial nev- er,|
w: glo- ry hal- le- lu- jah to the|Lamb! Nor *|mind the trou- bles met on|
w: glo- ry hal- le- lu- jah to the|Lamb! Till *|then shall death be but a|
 [DF]2 [CE]2 [B,D]2 [DF]2 | [DB]>[DB] [DB][DB] [Fd][Ec][DB][CA] | [DB]6 ||"^Refrain" [Fd][DB] | %10
w: grave is gone, O|glo- ry hal- le- lu- jah to the|Lamb!||
w: dwells with- in, O|glo- ry hal- le- lu- jah to the|Lamb!||
w: nev- er fail, O|glo- ry hal- le- lu- jah to the|Lamb!|Je- sus|
w: ev- ’ry hand, O|glo- ry hal- le- lu- jah to the|Lamb!||
w: calm re- pose, O|glo- ry hal- le- lu- jah to the|Lamb!||
 [Fd]6 [DB][Ec] | [Fd]6 [Ge][Fd] | [Ec]4- [Ec][Ec][Fd][Ec] | [DB]6 [DF]>[DF] | %14
w: ||||
w: ||||
w: rose from the|dead, Rose tri-|um- * phant as He|said, Snatched the|
w: ||||
w: ||||
 [DB]>[DB] [FB]>[Fc] [Fd]2 [DF]>[DF] | [DB]>[DB] [FB]>[Fc] [Fd]2 [Ge]2 | %16
w: ||
w: ||
w: vic- t’ry from the grave, Rose a-|gain our souls to save— O|
w: ||
w: ||
 [Bf]<[Bf] [GB][Ge]"^riten." [Fd]<[Fd] [Ec]>[EB] | [DB]6 |] %18
w: ||
w: ||
w: glo- ry hal- le- lu- jah to the|Lamb!|
w: ||
w: ||
V:2
 [B,,B,]2 | [B,,B,]2 [B,,B,]2 [E,G,][E,G,][E,G,][E,B,] | [B,,B,]2 [B,,F,]2 [B,,F,]2 [B,,B,]2 | %3
w: ~|~ ~ ~ ~ ~ ~|~ ~ ~ ~|
 [G,B,]>[G,B,] [G,B,][G,B,] [F,B,]F,F,F, | [B,,F,]6 ([B,,B,][B,,B,]) | %5
w: ~ ~ ~ ~ ~ ~ ~ ~|~ ~ *|
 [B,,B,]2 [D,B,]2 [E,B,][E,B,][E,B,][E,B,] | [B,,B,]2 [B,,F,]2 [B,,F,]2 [B,,B,]2 | %7
w: ~ ~ ~ ~ ~ ~|~ ~ ~ ~|
 [G,B,]>[G,B,] [G,B,][G,B,] [F,B,]F,F,F, | [B,,F,]6 || z2 | z2 D,F, B,2 z2 | z2 D,F, B,2 z2 | %12
w: ~ ~ ~ ~ ~ ~ ~ ~|~||Je- sus rose|from the dead|
 z2 [F,A,][F,A,] [F,A,][F,A,] z2 | z2 [D,B,][F,B,] B,2 [B,,B,]>[B,,B,] | %14
w: Rose tri- um- phant|as He said * *|
 [B,,F,]>[B,,F,] [D,B,]>[F,A,] B,2 [B,,B,]>[B,,B,] | [B,,F,]>[B,,F,] [D,B,]>[F,A,] B,2 [E,B,]2 | %16
w: ||
 [D,B,]<[D,B,] [G,B,][E,B,] [F,B,]<[F,B,] [F,,F,A,]>[F,,F,] | [B,,F,]6 |] %18
w: ||
V:3
 x2 | x8 | x8 | x5 F,F,F, | x8 | x8 | x8 | x5 F,F,F, | x6 || x2 | x2 D,F, B,2 x2 | x2 D,F, B,2 x2 | %12
 x8 | x4 B,2 x2 | x4 B,2 x2 | x4 B,2 x2 | x8 | x6 |] %18

